X: 1
T:Down the Back Lane
R:jig
S:Paddy Canny, Clare (fiddle)
N:As played
D:Home tape of unknown provenance
Z:Bernie Stocks
M:6/8
L:1/8
K:G
d|:cAG A2G|FDE  (3FEF D|cAA {c}BAG|Ade fed|!
AcG A2G|FDE  (3FEF G|Add fdd|e^cA G3:|!
|:Add fdd|cAB {d}cAG|Add fdd|e^cA ~G3|!
Add fdd|cAB cde|(3fga g ed^c|AGF ~G3:|!
